public/static/icons/navbar/ic_user.svg

<svg height="24" viewBox="0 0 24 24" width="24" xmlns="http://www.w3.org/2000/svg"><g transform="translate(5 3)"><path d="m7 8c2.209139 0 4-1.790861 4-4s-1.790861-4-4-4-4 1.790861-4 4 1.790861 4 4 4z" opacity=".48"/><path d="m13 18.0000001c.5522847 0 1-.4477154 1-1 0-3.8659933-3.1340068-7-7-7-3.86599321 0-7 3.1340067-7 7 0 .5522846.44771525 1 1 1z"/></g></svg>

<svg xmlns="http://www.w3.org/2000/svg" width="24" height="24" viewBox="0 0 24 24">
  <g transform="translate(5 3)">
    <path d="M7,8 C9.209139,8 11,6.209139 11,4 C11,1.790861 9.209139,0 7,0 C4.790861,0 3,1.790861 3,4 C3,6.209139 4.790861,8 7,8 Z" opacity=".48"/>
    <path d="M13,18.0000001 C13.5522847,18.0000001 14,17.5522847 14,17.0000001 C14,13.1340068 10.8659932,10.0000001 7,10.0000001 C3.13400679,10.0000001 0,13.1340068 0,17.0000001 C0,17.5522847 0.44771525,18.0000001 1,18.0000001 L13,18.0000001 Z"/>
  </g>
</svg>
